include/LD/assets/icons/action/log_event.svg

<?xml version="1.0"?><svg xmlns="http://www.w3.org/2000/svg" width="52" height="52" viewBox="0 0 52 52"><g fill="#fff"><path d="m38.7 40.2l-4.8 1.6c-0.4 0.1-0.9 0.2-1.3 0.2-1.4 0-2.8-0.7-3.7-1.8-0.9-1.1-1.1-2.7-0.8-4.1l1.6-5.7 7.5-7.5c0.3-0.3 0.1-0.9-0.4-0.9h-31.3c-0.8 0-1.5 0.7-1.5 1.5v18.5c0 2.2 1.8 4 4 4h28c2.2 0 4-1.8 4-4v-0.8c0-0.7-0.7-1.2-1.3-1z m-33.2-22.2h33c0.8 0 1.5-0.7 1.5-1.5v-2.5c0-2.2-1.8-4-4-4h-3v-1c0-1.6-1.3-3-3-3-1.6 0-3 1.3-3 3v1h-10v-1c0-1.6-1.3-3-3-3-1.6 0-3 1.3-3 3v1h-3c-2.2 0-4 1.8-4 4v2.5c0 0.8 0.7 1.5 1.5 1.5z m38 5.1c-0.2-0.2-0.5-0.2-0.7 0l-9.4 9.4-1.4 4.7c-0.1 0.5 0.3 0.9 0.8 0.8l4.7-1.4 9.4-9.4c0.2-0.2 0.2-0.5 0-0.7l-3.4-3.4z m8-2.9l-1.8-1.8c-0.6-0.6-1.7-0.6-2.4 0 0 0-1.1 1.1-1.6 1.7-0.2 0.2-0.2 0.5 0 0.7l3.4 3.4c0.2 0.2 0.5 0.2 0.7 0 0.6-0.6 1.7-1.6 1.7-1.6 0.7-0.6 0.7-1.7 0-2.4z"></path></g></svg>

<svg xmlns="http://www.w3.org/2000/svg" x="0px" y="0px"
	 width="52px" height="52px" viewBox="0 0 52 52" enable-background="new 0 0 52 52" xml:space="preserve">
<g>
	<path fill="#FFFFFF" d="M38.7,40.2l-4.8,1.6C33.5,41.9,33,42,32.6,42c-1.4,0-2.8-0.7-3.7-1.8c-0.9-1.1-1.1-2.7-0.8-4.1l1.6-5.7
		l7.5-7.5c0.3-0.3,0.1-0.9-0.4-0.9H5.5C4.7,22,4,22.7,4,23.5V42c0,2.2,1.8,4,4,4h28c2.2,0,4-1.8,4-4v-0.8C40,40.5,39.3,40,38.7,40.2
		z"/>
	<path fill="#FFFFFF" d="M5.5,18h33c0.8,0,1.5-0.7,1.5-1.5V14c0-2.2-1.8-4-4-4h-3V9c0-1.6-1.3-3-3-3H30c-1.6,0-3,1.3-3,3v1H17V9
		c0-1.6-1.3-3-3-3H14c-1.6,0-3,1.3-3,3v1H8c-2.2,0-4,1.8-4,4v2.5C4,17.3,4.7,18,5.5,18z"/>
	<path fill="#FFFFFF" d="M43.5,23.1c-0.2-0.2-0.5-0.2-0.7,0l-9.4,9.4L32,37.2c-0.1,0.5,0.3,0.9,0.8,0.8l4.7-1.4l9.4-9.4
		c0.2-0.2,0.2-0.5,0-0.7L43.5,23.1z"/>
	<path fill="#FFFFFF" d="M51.5,20.2l-1.8-1.8c-0.6-0.6-1.7-0.6-2.4,0c0,0-1.1,1.1-1.6,1.7c-0.2,0.2-0.2,0.5,0,0.7l3.4,3.4
		c0.2,0.2,0.5,0.2,0.7,0c0.6-0.6,1.7-1.6,1.7-1.6C52.2,22,52.2,20.9,51.5,20.2z"/>
</g>
</svg>
